resources/svg/calendar-todo-fill.svg

<svg fill="currentColor" viewBox="0 0 24 24" xmlns="http://www.w3.org/2000/svg"><path d="M17 3H21C21.5523 3 22 3.44772 22 4V20C22 20.5523 21.5523 21 21 21H3C2.44772 21 2 20.5523 2 20V4C2 3.44772 2.44772 3 3 3H7V1H9V3H15V1H17V3ZM4 9V19H20V9H4ZM6 11H8V13H6V11ZM6 15H8V17H6V15ZM10 11H18V13H10V11ZM10 15H15V17H10V15Z"/></svg>

<svg xmlns="http://www.w3.org/2000/svg" viewBox="0 0 24 24" fill="currentColor">
    <g>
        <path fill="none" d="M0 0h24v24H0z"/>
        <path d="M17 3h4a1 1 0 0 1 1 1v16a1 1 0 0 1-1 1H3a1 1 0 0 1-1-1V4a1 1 0 0 1 1-1h4V1h2v2h6V1h2v2zM4 9v10h16V9H4zm2 2h2v2H6v-2zm0 4h2v2H6v-2zm4-4h8v2h-8v-2zm0 4h5v2h-5v-2z"/>
    </g>
</svg>
